X:1
T: Miss Travers
C:
R:Reel
Q: 232
K:G
M:4/4
L:1/8
|:((3def) |g2 DG EG DG|EG DG G,A, B,D|EG cA Bc dc|((3Bdg) ba gf ed|
((3ccc) ac ((3BBB) gB|dg ba gf ed|ed cB cB AB|cd ef gb ag|
g2 DG ((3EGE) DG|((3EGE) DB, G,B, DG|cB cA Bc d2|dg ba gf ed|
g2 DG ((3EGE) DG|((3EGE) DB, G,B, DG|ed cB cB AG|FA cd BG G2|
((3gfg) dg bg ag|bg ag fg a2|ba gf gf ed|cd ef gb af|
((3gfg) dg bg ag|bg ag fg a2|((3bag) ((3agf) ((3gfe) ((3fed) |cd ef g2:|
